X: 3432
T: DANCING WALTZ
%R: waltz
B: James Kerr "Merry Melodies" v.3 p.49 #432
Z: 2016 John Chambers <jc:trillian.mit.edu>
M: 3/4
L: 1/8
K: G
Bc |\
d2B2ga | b2g2AB | c2A2fg | a2f2Bc |\
d2B2ga | b2g2AB | c2a2f2 | g4 ::\
uB2 |\
c2a2c2 | B2g2B2 | A2e2F2 | G2B2d2 |
(ca) (ac) c2 | (Bg) (gB) B2 | A2f2a2 | g4 ::\
f2 |\
e2ceg2 | d2Bdg2 | (c2e2)F2 | (GB)dgd2 |\
e2ceg2 | d2Bdg2 | c2e2F2 | G4 :|

%%sep 1 1 500
%%sep 1 1 500

